images/voorbeeld-persoon-1.svg

<svg height="69" viewBox="0 0 68 69" width="68" xmlns="http://www.w3.org/2000/svg" xmlns:xlink="http://www.w3.org/1999/xlink"><defs><path id="a" d="m33.5830565 69c18.5474099 0 33.5830565-15.4461761 33.5830565-34.5s-15.0356466-34.5-33.5830565-34.5c-18.54741 0-33.5830565 15.4461761-33.5830565 34.5s15.0356465 34.5 33.5830565 34.5z"/><mask id="b" fill="#fff"><use fill="#fff" fill-rule="evenodd" xlink:href="#a"/></mask><mask id="c" fill="#fff"><path d="m0 .07295752h45.1361955v68.06454248h-45.1361955z" fill="#fff" fill-rule="evenodd"/></mask></defs><g fill="none" fill-rule="evenodd" opacity=".597773"><use fill="#0095da" xlink:href="#a"/><path d="m5.82760524 7.7625 53.43031566 54.8891639-28.4961683 29.2742207-53.4303157-54.8891639z" fill="#0086c4" mask="url(#b)"/><g mask="url(#b)"><g transform="translate(9.235341 7.7625)"><path d="m5.43413349 68.1375 7.99742651-11.5575222 2.1178611 11.5575222h17.4432996c1.1027777-9.2443527.0423573-12.7073151.0423573-12.7073151l7.0210819 12.7073151h5.0800995l-8.4471793-20.1564309s-.4484757-2.0163003-3.5852515-3.091383c-3.1346472-1.0763972-4.9123734-2.2912604-4.9123734-4.5858071v-6.0399183h-3.8051258-.0074498-3.8053387v6.0399183c0 2.2945467-2.3894581 3.3875949-5.5243182 4.463773-3.1365629 1.0753018-3.5335288 3.072103-3.5335288 3.072103l-11.51563004 20.297745z" fill="#e6cab7" mask="url(#c)"/><path d="m38.0371465 16.8700563c0 11.1907628-3.8562099 20.3284178-13.7707796 20.3284178-9.9135054 0-13.5804914-9.2472009-13.5804914-20.4379636 0-11.19295375 9.2259988-13.44718763 13.7477918-13.44718763s13.6034792 2.3637797 13.6034792 13.55673343" fill="#fedec8"/><path d="m21.1610717 24.0370258c0 1.5369279-1.2251666 2.7837784-2.7344885 2.7837784-1.5103861 0-2.7332114-1.2468505-2.7332114-2.7837784 0-1.5371469 1.2228253-2.7833402 2.7332114-2.7833402 1.5093219 0 2.7344885 1.2461933 2.7344885 2.7833402" fill="#6dcff7"/><path d="m20.457729 24.0364124c0 1.0724535-.8458673 1.9440001-1.8875569 1.9440001-1.0425411 0-1.8871313-.8715466-1.8871313-1.9440001 0-1.0707009.8445902-1.9422474 1.8871313-1.9422474 1.0416896 0 1.8875569.8715465 1.8875569 1.9422474" fill="#2a1d01"/><path d="m17.7749844 23.0298177c0 .3097956-.2449908.5632846-.5453226.5632846-.301609 0-.5468126-.253489-.5468126-.5632846s.2452036-.5608746.5468126-.5608746c.3003318 0 .5453226.251079.5453226.5608746" fill="#fff"/><path d="m18.3430607 30.1992849c1.8707418 1.1673203 3.8734508 1.8883509 5.9031918 1.8614026 2.0418735 0 3.9981812-.8132682 5.9434206-1.8614026-.7145387.8669456-1.6080845 1.5857853-2.621465 2.1037179-1.0114649.5262582-2.1565998.8132682-3.3119516.831891-1.1540746.0019718-2.3075107-.2631291-3.3257868-.7810617-1.0176376-.5096072-1.9362997-1.2284468-2.587409-2.1545472" fill="#c42c76"/><path d="m27.850022 24.0370258c0 1.5369279 1.2251666 2.7837784 2.7344885 2.7837784 1.5103861 0 2.7332115-1.2468505 2.7332115-2.7837784 0-1.5371469-1.2228254-2.7833402-2.7332115-2.7833402-1.5093219 0-2.7344885 1.2461933-2.7344885 2.7833402" fill="#6dcff7"/><path d="m28.5533647 24.0364124c0 1.0724535.8458673 1.9440001 1.887557 1.9440001 1.042541 0 1.8871312-.8715466 1.8871312-1.9440001 0-1.0707009-.8445902-1.9422474-1.8871312-1.9422474-1.0416897 0-1.887557.8715465-1.887557 1.9422474" fill="#2a1d01"/><path d="m28.6601943 23.0298177c0 .3097956.2449907.5632846.5453226.5632846.3016089 0 .5468126-.253489.5468126-.5632846s-.2452037-.5608746-.5468126-.5608746c-.3003319 0-.5453226.251079-.5453226.5608746" fill="#fff"/><path d="m11.3244053 23.8809887s1.7715535-10.8989327 7.094941-12.5611809c6.3146316-1.9718248 11.7095367-.3717986 13.4095725.3650066 2.6961755 1.1686348 5.6052014 11.9041252 5.6052014 11.9041252s1.4188605-9.0559339.567459-11.8309486c-.8514014-2.77523377-2.979905-5.47751005-2.979905-5.47751005s-.7094302-3.06728296-3.4056057-3.7975154c-2.6959627-.73023243-4.5407367-2.26387391-4.5407367-2.26387391v.73023244l-4.6827079-.87636656.2837295.87636656-5.6758676.51114079.7094302.87636656-3.8313064 1.16863481.8514014.43818328-3.8313064 2.33683143h1.5608317l-1.8209348 3.55563822-.4493272.60732203.8514015.2920492-1.27710217 3.6516003h1.13513097l-.8226666 3.6695659-.0287348.1279495.7094302-.1461341z" fill="#edc866"/><path d="m32.0418331 11.7579253 2.5542042-4.38183279-2.8379338 3.35933209s-10.2168172-2.62909965-14.1900948 1.0225007c0 0 6.0306892-3.28637459 14.4738244 0" fill="#c6a956"/><path d="m31.4742463 11.319742s2.5542043 1.6797756 4.4698575 7.2300241c0 0-.9933726-4.9661502-4.186128-7.8143415z" fill="#c6a956"/><path d="m28.423377 10.4433755-4.0441568-1.89886727.2128503.65727492-3.6893352-.94932408 1.1351309 1.16841572-2.5542043-.29204916.5676719.36522576-3.050997.51114081 1.5610445.2190916s-2.2704747.4381833-2.9090258 1.2415924c-.6385511.8031899-2.6961755 6.2804809-2.6961755 6.2804809s3.1927554-5.9154743 4.7537999-6.3536576c1.5608317-.4381832 10.7133971-.949324 10.7133971-.949324" fill="#c6a956"/><g fill="#efe08a"><path d="m31.899947 4.82001608-1.9156532-1.31454984 1.1351309 1.16841571-1.4624948-.29139188-.7368879-.1467914.0708792.73045153 1.0642518.21909164-2.7670547.21909164 1.7738949.5111408-.6385511 1.02250068h2.1285036z"/><path d="m34.950795 9.42094051c-.1419712.21909164-.9933726 1.16841569-.7094302 2.33705049.2837295 1.1684158 1.135131 3.1402405 1.135131 3.1402405l-.2837296-2.9211488.7094303.5111408z"/><path d="m30.2680872 8.83668884c-1.9865324-.07295752-5.6049885-1.606599-5.6049885-1.606599l3.0507842.65727492-.2837296-.73045152 1.7736821.21909164s-2.5542043-1.31454984-2.2704748-1.24137324c.2839424.07295752 3.1218762.5111408 3.1218762.5111408z"/><path d="m14.588125 11.1006504c-.4257007 1.460684-1.773682 5.9884318-1.773682 5.9884318l.4965798-2.7020572s-.2128503-.2190917-.2128503-.5111408c0-.2922683 1.4899525-2.7752338 1.4899525-2.7752338"/></g><path d="m13.6657592 58.7165595s.5683105 5.4604209 1.009975 9.4209405h18.1063285c.4333634-4.3489691 1.3173309-9.2018489 1.3173309-9.2018489l1.9156532 3.7245579 5.7469597-5.0391077-4.4698575-11.3927653-4.0441568-2.1909164s-1.9156532 6.5727492-8.301164 6.7918409c-6.3855107.2190916-9.7911165-6.7918409-9.7911165-6.7918409l-2.979905 1.0954582-5.74695963 10.0782154 4.25700713 7.6682074z" fill="#542f82"/><path d="m19.0183072 68.1375h9.4716281c1.5753055-1.2323905 2.7881268-3.0710075 2.7006453-4.9661502-.1419712-3.067283-1.2771021-8.0332141-2.6961755-8.3254823-1.4190733-.2920492-4.5407367-.8763666-4.5407367-.8763666s-1.844774-.4381833-4.2570071 1.6068181c-2.412446 2.0447823-4.1152488 7.0109325-2.2704748 10.5163987.4489014.8531429.9908184 1.5233442 1.5921207 2.0447823" fill="#c42c76"/><path d="m25.185476 59.1125895c-.3301309 0-.5976838-.2753982-.5976838-.6152093s.2675529-.6152093.5976838-.6152093.5976838.2753982.5976838.6152093-.2675529.6152093-.5976838.6152093m2.0322953 1.5995881c-.5380858-1.3535482-.9563367-2.6455316-.2392438-2.7070963 0 0-.9563367-1.5380233-2.8091991-.2460399-1.8528623 1.2919834-2.3311371 7.5674252-4.7218723 7.2598206 0 0 3.3451562.521219 5.5587999-.1229104 2.1666038-.6307649 2.7493881-2.8302259 2.2115153-4.183774" fill="#fff"/></g></g></g></svg>

<?xml version="1.0" encoding="UTF-8" standalone="no"?>
<svg width="68px" height="69px" viewBox="0 0 68 69" version="1.1" xmlns="http://www.w3.org/2000/svg" xmlns:xlink="http://www.w3.org/1999/xlink">
    <!-- Generator: Sketch 3.6.1 (26313) - http://www.bohemiancoding.com/sketch -->
    <title>voorbeeld-persoon-1</title>
    <desc>Created with Sketch.</desc>
    <defs>
        <path id="path-1" d="M33.5830565,69 C52.1304664,69 67.166113,53.5538239 67.166113,34.5 C67.166113,15.4461761 52.1304664,0 33.5830565,0 C15.0356465,0 0,15.4461761 0,34.5 C0,53.5538239 15.0356465,69 33.5830565,69 Z"></path>
        <path id="path-3" d="M0,0.0729575161 L45.1361955,0.0729575161 L45.1361955,68.1375 L0,68.1375 L0,0.0729575161 Z"></path>
    </defs>
    <g id="Page-1" stroke="none" stroke-width="1" fill="none" fill-rule="evenodd" opacity="0.597772854">
        <g id="voorbeeld-persoon-1">
            <mask id="mask-2" fill="white">
                <use xlink:href="#path-1"></use>
            </mask>
            <use id="Mask" fill="#0095DA" xlink:href="#path-1"></use>
            <path d="M5.82760524,7.7625 L59.2579209,62.6516639 L30.7617526,91.9258846 L-22.6685631,37.0367207 L5.82760524,7.7625 L5.82760524,7.7625 Z" id="Rectangle-27" fill="#0086C4" mask="url(#mask-2)"></path>
            <g id="Page-1" mask="url(#mask-2)">
                <g transform="translate(9.235341, 7.762500)">
                    <g id="Group-3" stroke-width="1" fill="none">
                        <mask id="mask-4" fill="white">
                            <use xlink:href="#path-3"></use>
                        </mask>
                        <g id="Clip-2"></g>
                        <path d="M5.43413349,68.1375 L13.43156,56.5799778 L15.5494211,68.1375 L32.9927207,68.1375 C34.0954984,58.8931473 33.035078,55.4301849 33.035078,55.4301849 L40.0561599,68.1375 L45.1362594,68.1375 L36.6890801,47.9810691 C36.6890801,47.9810691 36.2406044,45.9647688 33.1038286,44.8896861 C29.9691814,43.8132889 28.1914552,42.5984257 28.1914552,40.303879 L28.1914552,34.2639607 L24.3863294,34.2639607 L24.3788796,34.2639607 L20.5735409,34.2639607 L20.5735409,40.303879 C20.5735409,42.5984257 18.1840828,43.6914739 15.0492227,44.767652 C11.9126598,45.8429538 11.5156939,47.839755 11.5156939,47.839755 L6.38551074e-05,68.1375 L5.43413349,68.1375 Z" id="Fill-1" fill="#E6CAB7" mask="url(#mask-4)"></path>
                    </g>
                    <path d="M38.0371465,16.8700563 C38.0371465,28.0608191 34.1809366,37.1984741 24.2663669,37.1984741 C14.3528615,37.1984741 10.6858755,27.9512732 10.6858755,16.7605105 C10.6858755,5.56755675 19.9118743,3.31332287 24.4336673,3.31332287 C28.9554603,3.31332287 38.0371465,5.67710257 38.0371465,16.8700563" id="Fill-4" fill="#FEDEC8"></path>
                    <path d="M21.1610717,24.0370258 C21.1610717,25.5739537 19.9359051,26.8208042 18.4265832,26.8208042 C16.9161971,26.8208042 15.6933718,25.5739537 15.6933718,24.0370258 C15.6933718,22.4998789 16.9161971,21.2536856 18.4265832,21.2536856 C19.9359051,21.2536856 21.1610717,22.4998789 21.1610717,24.0370258" id="Fill-6" fill="#6DCFF7"></path>
                    <path d="M20.457729,24.0364124 C20.457729,25.1088659 19.6118617,25.9804125 18.5701721,25.9804125 C17.527631,25.9804125 16.6830408,25.1088659 16.6830408,24.0364124 C16.6830408,22.9657115 17.527631,22.094165 18.5701721,22.094165 C19.6118617,22.094165 20.457729,22.9657115 20.457729,24.0364124" id="Fill-8" fill="#2A1D01"></path>
                    <path d="M17.7749844,23.0298177 C17.7749844,23.3396133 17.5299936,23.5931023 17.2296618,23.5931023 C16.9280528,23.5931023 16.6828492,23.3396133 16.6828492,23.0298177 C16.6828492,22.7200221 16.9280528,22.4689431 17.2296618,22.4689431 C17.5299936,22.4689431 17.7749844,22.7200221 17.7749844,23.0298177" id="Fill-10" fill="#FFFFFF"></path>
                    <path d="M18.3430607,30.1992849 C20.2138025,31.3666052 22.2165115,32.0876358 24.2462525,32.0606875 C26.288126,32.0606875 28.2444337,31.2474193 30.1896731,30.1992849 C29.4751344,31.0662305 28.5815886,31.7850702 27.5682081,32.3030028 C26.5567432,32.829261 25.4116083,33.116271 24.2562565,33.1348938 C23.1021819,33.1368656 21.9487458,32.8717647 20.9304697,32.3538321 C19.9128321,31.8442249 18.99417,31.1253853 18.3430607,30.1992849" id="Fill-12" fill="#C42C76"></path>
                    <path d="M27.850022,24.0370258 C27.850022,25.5739537 29.0751886,26.8208042 30.5845105,26.8208042 C32.0948966,26.8208042 33.317722,25.5739537 33.317722,24.0370258 C33.317722,22.4998789 32.0948966,21.2536856 30.5845105,21.2536856 C29.0751886,21.2536856 27.850022,22.4998789 27.850022,24.0370258" id="Fill-14" fill="#6DCFF7"></path>
                    <path d="M28.5533647,24.0364124 C28.5533647,25.1088659 29.399232,25.9804125 30.4409217,25.9804125 C31.4834627,25.9804125 32.3280529,25.1088659 32.3280529,24.0364124 C32.3280529,22.9657115 31.4834627,22.094165 30.4409217,22.094165 C29.399232,22.094165 28.5533647,22.9657115 28.5533647,24.0364124" id="Fill-16" fill="#2A1D01"></path>
                    <path d="M28.6601943,23.0298177 C28.6601943,23.3396133 28.905185,23.5931023 29.2055169,23.5931023 C29.5071258,23.5931023 29.7523295,23.3396133 29.7523295,23.0298177 C29.7523295,22.7200221 29.5071258,22.4689431 29.2055169,22.4689431 C28.905185,22.4689431 28.6601943,22.7200221 28.6601943,23.0298177" id="Fill-18" fill="#FFFFFF"></path>
                    <path d="M11.3244053,23.8809887 C11.3244053,23.8809887 13.0959588,12.982056 18.4193463,11.3198078 C24.7339779,9.347983 30.128883,10.9480092 31.8289188,11.6848144 C34.5250943,12.8534492 37.4341202,23.5889396 37.4341202,23.5889396 C37.4341202,23.5889396 38.8529807,14.5330057 38.0015792,11.757991 C37.1501778,8.98275723 35.0216742,6.28048095 35.0216742,6.28048095 C35.0216742,6.28048095 34.312244,3.21319799 31.6160685,2.48296555 C28.9201058,1.75273312 27.0753318,0.21909164 27.0753318,0.21909164 L27.0753318,0.949324076 L22.3926239,0.0729575161 L22.6763534,0.949324076 L17.0004858,1.46046487 L17.709916,2.33683143 L13.8786096,3.50546624 L14.730011,3.94364952 L10.8987046,6.28048095 L12.4595363,6.28048095 L10.6386015,9.83611917 L10.1892743,10.4434412 L11.0406758,10.7354904 L9.76357363,14.3870907 L10.8987046,14.3870907 L10.076038,18.0566566 L10.0473032,18.1846061 L10.7567334,18.038472 L11.3244053,23.8809887 Z" id="Fill-20" fill="#EDC866"></path>
                    <path d="M32.0418331,11.7579253 L34.5960373,7.37609251 L31.7581035,10.7354246 C31.7581035,10.7354246 21.5412863,8.10632495 17.5680087,11.7579253 C17.5680087,11.7579253 23.5986979,8.47155071 32.0418331,11.7579253" id="Fill-22" fill="#C6A956"></path>
                    <path d="M31.4742463,11.319742 C31.4742463,11.319742 34.0284506,12.9995176 35.9441038,18.5497661 C35.9441038,18.5497661 34.9507312,13.5836159 31.7579758,10.7354246 L31.4742463,11.319742 Z" id="Fill-24" fill="#C6A956"></path>
                    <path d="M28.423377,10.4433755 L24.3792202,8.54450823 L24.5920705,9.20178315 L20.9027353,8.25245907 L22.0378662,9.42087479 L19.4836619,9.12882563 L20.0513338,9.49405139 L17.0003368,10.0051922 L18.5613813,10.2242838 C18.5613813,10.2242838 16.2909066,10.6624671 15.6523555,11.4658762 C15.0138044,12.2690661 12.95618,17.7463571 12.95618,17.7463571 C12.95618,17.7463571 16.1489354,11.8308828 17.7099799,11.3926995 C19.2708116,10.9545163 28.423377,10.4433755 28.423377,10.4433755" id="Fill-26" fill="#C6A956"></path>
                    <path d="M31.899947,4.82001608 L29.9842938,3.50546624 L31.1194247,4.67388195 L29.6569299,4.38249007 L28.920042,4.23569867 L28.9909212,4.9661502 L30.055173,5.18524184 L27.2881183,5.40433348 L29.0620132,5.91547428 L28.4234621,6.93797496 L30.5519657,6.93797496 L31.899947,4.82001608 Z" id="Fill-28" fill="#EFE08A"></path>
                    <path d="M34.950795,9.42094051 C34.8088238,9.64003215 33.9574224,10.5893562 34.2413648,11.757991 C34.5250943,12.9264068 35.3764958,14.8982315 35.3764958,14.8982315 L35.0927662,11.9770827 L35.8021965,12.4882235 L34.950795,9.42094051 Z" id="Fill-30" fill="#EFE08A"></path>
                    <path d="M30.2680872,8.83668884 C28.2815548,8.76373132 24.6630987,7.23008984 24.6630987,7.23008984 L27.7138829,7.88736476 L27.4301533,7.15691324 L29.2038354,7.37600488 C29.2038354,7.37600488 26.6496311,6.06145504 26.9333606,6.13463164 C27.217303,6.20758916 30.0552368,6.64577244 30.0552368,6.64577244 L30.2680872,8.83668884 Z" id="Fill-32" fill="#EFE08A"></path>
                    <path d="M14.588125,11.1006504 C14.1624243,12.5613344 12.814443,17.0890822 12.814443,17.0890822 L13.3110228,14.387025 C13.3110228,14.387025 13.0981725,14.1679333 13.0981725,13.8758842 C13.0981725,13.5836159 14.588125,11.1006504 14.588125,11.1006504" id="Fill-34" fill="#EFE08A"></path>
                    <path d="M13.6657592,58.7165595 C13.6657592,58.7165595 14.2340697,64.1769804 14.6757342,68.1375 L32.7820627,68.1375 C33.2154261,63.7885309 34.0993936,58.9356511 34.0993936,58.9356511 L36.0150468,62.660209 L41.7620065,57.6211013 L37.292149,46.228336 L33.2479922,44.0374196 C33.2479922,44.0374196 31.332339,50.6101688 24.9468282,50.8292605 C18.5613175,51.0483521 15.1557117,44.0374196 15.1557117,44.0374196 L12.1758067,45.1328778 L6.42884707,55.2110932 L10.6858542,62.8793006 L13.6657592,58.7165595 Z" id="Fill-36" fill="#542F82"></path>
                    <path d="M19.0183072,68.1375 L28.4899353,68.1375 C30.0652408,66.9051095 31.2780621,65.0664925 31.1905806,63.1713498 C31.0486094,60.1040668 29.9134785,55.1381357 28.4944051,54.8458675 C27.0753318,54.5538183 23.9536684,53.9695009 23.9536684,53.9695009 C23.9536684,53.9695009 22.1088944,53.5313176 19.6966613,55.576319 C17.2842153,57.6211013 15.5814125,62.5872515 17.4261865,66.0927177 C17.8750879,66.9458606 18.4170049,67.6160619 19.0183072,68.1375" id="Fill-38" fill="#C42C76"></path>
                    <path d="M25.185476,59.1125895 C24.8553451,59.1125895 24.5877922,58.8371913 24.5877922,58.4973802 C24.5877922,58.1575691 24.8553451,57.8821709 25.185476,57.8821709 C25.5156069,57.8821709 25.7831598,58.1575691 25.7831598,58.4973802 C25.7831598,58.8371913 25.5156069,59.1125895 25.185476,59.1125895 M27.2177713,60.7121776 C26.6796855,59.3586294 26.2614346,58.066646 26.9785275,58.0050813 C26.9785275,58.0050813 26.0221908,56.467058 24.1693284,57.7590414 C22.3164661,59.0510248 21.8381913,65.3264666 19.4474561,65.018862 C19.4474561,65.018862 22.7926123,65.540081 25.006256,64.8959516 C27.1728598,64.2651867 27.7556441,62.0657257 27.2177713,60.7121776" id="Fill-40" fill="#FFFFFF"></path>
                </g>
            </g>
        </g>
    </g>
</svg>
